Hatter-kde/actions/16/none.svg

<svg xmlns="http://www.w3.org/2000/svg" viewBox="0 0 16 16">
  <defs id="defs3051">
    <style type="text/css" id="current-color-scheme">
      .ColorScheme-Text {
        color:#363636;
      }
      </style>
  </defs>
  <path
     style="fill:currentColor;fill-opacity:1;stroke:none" 
     class="ColorScheme-Text"
    d="M 2.7109375 2 L 2.0039062 2.7070312 L 7.2988281 8.0019531 L 2.0078125 13.292969 C 2.0078125 13.292969 2.7238438 13.995 2.7148438 14 L 8.0058594 8.7089844 L 13.296875 14 C 13.287875 13.995 14.003906 13.292969 14.003906 13.292969 L 8.7128906 8.0019531 L 14.007812 2.7070312 L 13.300781 2 L 8.0058594 7.2949219 L 2.7109375 2 z "
          />
</svg>

<?xml version="1.0" encoding="UTF-8"?>
<svg width="16" height="16" version="1.1" xmlns="http://www.w3.org/2000/svg">
 <path d="m13.303 1.9896-5.3033 5.3033-5.3033-5.3033-0.70711 0.70711 5.3033 5.3033-5.3033 5.3033 0.70711 0.70711 5.3033-5.3033 5.3033 5.3033 0.70711-0.70711-5.3033-5.3033 5.3033-5.3033z" fill="#363636" stroke-linecap="round" stroke-linejoin="round" stroke-width="2"/>
</svg>
